assets/fill/tray-fill.svg

<svg id="Flat" xmlns="http://www.w3.org/2000/svg" viewBox="0 0 256 256">
  <path d="M208.00293,32h-160a16.01833,16.01833,0,0,0-16,16V159.88379c-.00049.03906-.00586.07715-.00586.11621s.00537.07715.00586.11621V208a16.01833,16.01833,0,0,0,16,16h160a16.01833,16.01833,0,0,0,16-16V48A16.01833,16.01833,0,0,0,208.00293,32Zm0,176h-160V168l28.68066-.001,19.31446,19.31641A15.89834,15.89834,0,0,0,107.31055,192h41.373a15.89606,15.89606,0,0,0,11.31348-4.68652L179.31055,168h28.6997l.00245,40Z"/>
</svg>

<svg xmlns="http://www.w3.org/2000/svg" viewBox="0 0 256 256"><path d="M208,32H48A16,16,0,0,0,32,48V159.9h0V208a16,16,0,0,0,16,16H208a16,16,0,0,0,16-16V48A16,16,0,0,0,208,32Zm0,176H48V168H76.7L96,187.3a15.9,15.9,0,0,0,11.3,4.7h41.4a15.9,15.9,0,0,0,11.3-4.7L179.3,168H208v40Z"/></svg>
